src/search-nav.svg

<svg viewBox="0 0 16 16" fill="none" xmlns="http://www.w3.org/2000/svg"><path fill-rule="evenodd" clip-rule="evenodd" d="M7 3H2V4H7V3ZM9 12H2V13H9V12ZM2 7.5H6V8.5H2V7.5ZM11.561 8.626C12.1425 8.41436 12.6161 7.98039 12.8776 7.41956C13.1391 6.85873 13.1671 6.21699 12.9555 5.6355C12.7439 5.05401 12.3099 4.58042 11.7491 4.3189C11.1882 4.05738 10.5465 4.02936 9.965 4.241C9.38351 4.45264 8.90992 4.88661 8.6484 5.44744C8.38688 6.00827 8.35886 6.65001 8.5705 7.2315C8.78214 7.81299 9.21611 8.28658 9.77694 8.5481C10.3378 8.80962 10.9795 8.83764 11.561 8.626ZM13.896 5.294C14.172 6.05251 14.1635 6.88541 13.872 7.63811C13.5806 8.39082 13.0259 9.01223 12.311 9.387L13.461 12.547L12.521 12.888L11.366 9.713C10.7408 9.82791 10.0958 9.76171 9.50705 9.5222C8.91826 9.28269 8.4102 8.87986 8.04277 8.36118C7.67533 7.84249 7.46382 7.22959 7.43317 6.59468C7.40253 5.95978 7.55401 5.32935 7.86978 4.77769C8.18555 4.22603 8.65244 3.77613 9.21543 3.48102C9.77841 3.18591 10.414 3.0579 11.0474 3.11205C11.6807 3.16621 12.2853 3.40029 12.79 3.78669C13.2947 4.1731 13.6785 4.69574 13.896 5.293V5.294Z" fill="#111111"/></svg>

<svg fill="#000000" viewBox="0 0 16 16" xmlns="http://www.w3.org/2000/svg"><title>search + navigation</title><path fill-rule="evenodd" clip-rule="evenodd" d="M7 3H2v1h5V3Zm2 9H2v1h7v-1ZM2 7.5h4v1H2v-1Zm9.561 1.126a2.333 2.333 0 1 0-1.596-4.385 2.333 2.333 0 0 0 1.596 4.385Zm2.335-3.332a3.334 3.334 0 0 1-1.585 4.093l1.15 3.16-.94.341-1.155-3.175a3.334 3.334 0 1 1 2.53-4.42Z" fill="#111"/></svg>
